X: 13936
T: Fractured Flute, The
R: slip jig
M: 9/8
K: Bminor
|:FBd ~f3 ecA|GBd ~e3 dcB|FBd ~f3 egf|1 edc BcA B2A:|2 edc BcA B2c||
|:dff dgg fed|c3 cde dcB|dff dgg agf|1 edc BcA B2c:|2 edc BcA B3||

